!!!COM: Mozart, Wolfgang Amadeus
!!!OTL: String Quartet No. 22 in B-flat Major
!!!OMD: Allegro assai
!!!OMV: 4
!!!SCT1: K<sup>1</sup> 589
!!!SCA: Chronologisch-thematisches Verzeichnis sämtlicher Tonwerke Wolfgang Amade Mozarts (L. von Köchel; 1862, 2/1905, 3/1937, 1947)
!!!SCT1: K<sup>1</sup> 589
!!!YOR: Breitkopf & Härtel Edition
!!!ENC: Frances Bennion
!!!CDT: 1756/1/27/-1791/12/5/
!!!OCY: Österreich
!!!YEC: Copyright (c) 1994, 2000 Center for Computer Assisted Research in the Humanities
!!!YEM: Rights to all derivative editions reserved.
!!!YEM: Refer to licensing agreement for further details.
!!!YEN: United States of America
**kern	**kern	**kern	**kern
*k[b-e-]	*k[b-e-]	*k[b-e-]	*k[b-e-]
*B-:	*B-:	*B-:	*B-:
*clefC	*clefF	*clefG	*clefG
*M6/8	*M6/8	*M6/8	*M6/8
2r	2r	2r	2r
8r	8r	8r	8r
8r	8r	8dd	8ff
=1	=1	=1	=1
2.r	4r	4dd	4ff
.	8g	8cc	8ee-
.	4g	8b	8dd
.	.	8cc	8ee-
.	8f	8dd	8ff
=2	=2	=2	=2
2.r	8e-	8ee-	8gg
.	8f	8cc	8ee-
.	8g	8b	8dd
.	8e-	8cc	8cc
.	8c	8r	8r
.	8r	8cc	8ee-
=3	=3	=3	=3
2.r	4r	4cc	4ee-
.	8f	8b-	8dd
.	4f	8a	8cc
.	.	8b-	8dd
.	8e-	8cc	8ee-
=4	=4	=4	=4
2.r	8d	8dd	8ff
.	8e-	8b-	8dd
.	8f	8a	8cc
.	8d	8b-	8b-
.	8B-	4r	8r
.	8r	.	8b-
=5	=5	=5	=5
4.E-	2.f	4.c	8a
.	.	.	8ff
.	.	.	8a
4.D	.	4.d	8b-
.	.	.	8dd
.	.	.	8b-
=6	=6	=6	=6
4.E-	2f	8c	8a
.	.	8A	8ff
.	.	8c	8a
8D	.	8d	8b-
4r	4r	4r	8ddd
.	.	.	8ddd
=7	=7	=7	=7
4.BB-	4.g	4.ff	16ddd
.	.	.	16ccc
.	.	.	16bb-
.	.	.	16aa
.	.	.	16gg
.	.	.	16ff
4.C	4.B-	4g	16ee
.	.	.	16dd
.	.	.	16cc
.	.	.	16b-
.	.	8e	16a
.	.	.	16g
=8	=8	=8	=8
8D	8A	8f	8f
8BB-	8B-	8d	8g
8C	8G	8B-	8e
8FF	8F	8A	8f
8r	8r	8r	8r
8F	8r	8r	8r
=9	=9	=9	=9
4F	4r	4r	2.r
8E-	8d	8f	.
8D	4d	4f	.
8E-	.	.	.
8F	8c	8e-	.
=10	=10	=10	=10
8G	8B	8d	2.r
8E-	8c	8e-	.
8D	8d	8f	.
8C	8e-	8g	.
8D	8c	8e-	.
8E-	8B-	8d	.
=11	=11	=11	=11
8F	8A	8c	2.r
8D	8B-	8d	.
8C	8c	8e-	.
8BB-	8d	8f	.
8C	8B-	8d	.
8D	8A	8c	.
=12	=12	=12	=12
8E-	8G	8B-	2.r
8C	8A	8e-	.
8BB-	8B-	8d	.
[4.FF	8B-	8d	.
.	8A	8c	.
.	8d	8b-	.
=13	=13	=13	=13
2.FF_	4d	4b-	4r
.	8c	8a	8bb-
.	8B-	8g	4bb-
.	8c	8a	.
.	8d	8b-	8aa
=14	=14	=14	=14
2.FF_	8e-	8cc	8gg
.	8c	8a	8aa
.	8B-	8g	8bb-
.	8A	8f	8ccc
.	8B-	8g	8aa
.	8c	8a	8gg
=15	=15	=15	=15
2.FF_	8d	8b-	8ff
.	8B-	8g	8gg
.	8A	8f	8aa
.	8G	8e-	8bb-
.	8e-	8g	8gg
.	8f	8a	8ff
=16	=16	=16	=16
4.FF]	4g	4b-	8ee-
.	.	.	8gg
.	8f	8a	8dd
8r	4e-	4g	8cc
8C	.	.	8ee-
8D	8d	8f	8b-
=17	=17	=17	=17
8E-	4c	4e-	4a
8G-	.	.	.
8D	8d	8f	8b-
8C	4e-	4a	4cc
8E-	.	.	.
8BB-	8d	8b-	8dd
=18	=18	=18	=18
8AA	4c	2cc	2ee-
8C	.	.	.
8GG-	8B-	.	.
8FF	8A	.	.
4r	4r	8r	8r
.	.	8dd	8ff
=19	=19	=19	=19
2.r	16B	4dd	4ff
.	16c	.	.
.	16d	.	.
.	16e-	.	.
.	16f	8cc	8ee-
.	16g	.	.
.	8a-	8b	8dd
.	8g	8cc	8ee-
.	8f	8dd	8ff
=20	=20	=20	=20
16C	8e-	8ee-	8gg
16E-	.	.	.
16F	8r	8g	8ee-
16G	.	.	.
16A	8g	8f	8dd
16B	.	.	.
8c	8g	8e-	8cc
8C	4r	8r	8r
8r	.	8cc	8ee-
=21	=21	=21	=21
2.r	16A	4cc	4ee-
.	16B-	.	.
.	16c	.	.
.	16d	.	.
.	16e-	8b-	8dd
.	16f	.	.
.	8g-	8a	8cc
.	8f	8b-	8dd
.	8e-	8cc	8ee-
=22	=22	=22	=22
16BB-	8d	8dd	8ff
16D	.	.	.
16E-	8r	8f	8dd
16F	.	.	.
16G	8f	8e-	8cc
16A	.	.	.
8B-	8f	8d	8b-
8BB-	4r	4r	8r
8r	.	.	8b-
=23	=23	=23	=23
2.r	4.e-	[2f	8a
.	.	.	8ff
.	.	.	8a
.	4.d	.	8b-
.	.	8f]	8dd
.	.	8b-	8b-
=24	=24	=24	=24
4.E-	8c	8a	8r
.	8A	8cc	8gg-
.	8c	8a	8ff
4.D	8d	8b-	8r
.	8B-	8dd	8gg-
.	8d	8b-	8ff
=25	=25	=25	=25
4.F	8d	8b	8r
.	8B	8dd	8aa-
.	8d	8b	8gg
4.E-	8e-	8cc	16ff#
.	.	.	16gg
.	8c	8g	16ff
.	.	.	16ee-
.	8g	8e-	16dd
.	.	.	16cc
=26	=26	=26	=26
8F	4f	4d	4b-
8FF	.	.	.
8FF#	8A	8e-	16dd
.	.	.	16cc
8GG	8B-	8d	8b-
8G	4r	4r	8eee-
8r	.	.	8eee-
=27	=27	=27	=27
4.CC	4.E-	4.A	16eee-
.	.	.	16ddd
.	.	.	16ccc
.	.	.	16bb-
.	.	.	16aa
.	.	.	16gg
4.DD	4.F	4.B-	16ff
.	.	.	16ee-
.	.	.	16dd
.	.	.	16cc
.	.	.	16b-
.	.	.	16a
=28	=28	=28	=28
8EE-	8G	8c	8g
8CC	8r	8e-	8cc
8FF	8F	8c	8a
8BB-	8F	8d	8b-
8r	8r	8r	8r
8r	8r	8r	8r
=29	=29	=29	=29
2.r	2.r	2.r	8g
.	.	.	8cc
.	.	.	8a
.	.	.	8dd
.	.	.	8b-
.	.	.	8ee-
=30	=30	=30	=30
2.r	2r	2r	8cc
.	.	.	8ff
.	.	.	8dd
.	.	.	4gg
.	8b-	8dd	.
.	8a	8cc	8ff
=31	=31	=31	=31
2.r	4g	4b-	8ff
.	.	.	8ee-
.	8f	8a	8dd
.	4e-	4g	8dd
.	.	.	8cc
.	8d	8f	8b-
=32	=32	=32	=32
2.r	8c	8e-	8a
.	8A	8cc	8ee-
.	8B-	8b-	8dd
.	8F	8a	8cc
.	4r	4r	4r
=33	=33	=33	=33
8GG	2.r	2.r	2.r
8C	.	.	.
8AA	.	.	.
8D	.	.	.
8BB-	.	.	.
8E-	.	.	.
=34	=34	=34	=34
8C	4.r	4.r	2r
8F	.	.	.
8D	.	.	.
4G	8b-	8dd	.
.	8cc#	8ee	8bb-
8F	8dd	8ff	8aa
=35	=35	=35	=35
8F	8g	8b-	8r
8E-	8a	8cc	8gg
8D	8b-	8dd	8ff
8D	8e-	8g	8r
8C	8f	8a	8ee-
8BB-	8f#	8b-	8dd
=36	=36	=36	=36
8E-	8g	8b-	8cc
8C	8r	8r	8ee-
8F	8c	8e-	8a
8BB-	8B-	8d	8b-
4r	4r	4r	4r
=37	=37	=37	=37
8BB-	8d	8f	8dd
8GG	8B-	8b-	8gg
8C	8e	8g	8ee
8AA	8c	8cc	8aa
8D	8f#	8a	8ff#
8BB-	8d	8dd	8bb-
=38	=38	=38	=38
8E-	8g	8b-	8gg
8C	8e	8ee	8ccc
8F	8a	8cc	8aa
8DD	8r	8f#	4ddd
8EE	8d	8g	.
8FF#	8d	8a	8ccc
=39	=39	=39	=39
8GG	4.d	8b-	8bb-
8AA	.	8cc	8ff#
8BB-	.	8dd	8gg
8CC	8r	8e	4ccc
8DD	8c	8f	.
8EE	8c	8g	8bb-
=40	=40	=40	=40
8FF	8c	8a	8aa
8r	8r	8r	8ff
8e	8cc	8gg	4ccc
4d	4f	4ff	.
.	.	.	8bb-
8c	8a	8ee	[8aa
=41	=41	=41	=41
4B-	4d	4dd	8aa]
.	.	.	8gg
8A	8f	8cc	4ff
4G	8c	4b-	.
.	8dd	.	8ee
8F	8cc	16a	8ff
.	.	16f	.
=42	=42	=42	=42
4c	8cc	8e	8gg
.	4r	4r	8cc
2r	.	.	4ccc
.	4dd-	4ff	.
.	.	.	8bb-
.	8cc	8ee-	[8aa-
=43	=43	=43	=43
2.r	4b-	4dd-	8aa-]
.	.	.	8gg
.	8a-	8cc	4ff
.	4g	4b-	.
.	.	.	8ee
.	8f	16a-	8ff
.	.	16f	.
=44	=44	=44	=44
2.r	4c	8e	4gg
.	.	8cc	.
.	2r	8cc	2r
.	.	8cc	.
.	.	8cc	.
.	.	8cc	.
=45	=45	=45	=45
2.r	8a	8cc	8r
.	8a	8cc	8ee
.	8a	8cc	8ff
.	8a	8cc	8r
.	8a	8cc	8gg
.	8a	8cc	8ff
=46	=46	=46	=46
2.r	8b-	8cc	8r
.	8b-	8cc	8gg
.	8b-	8cc	8aa
.	8b-	8cc	8ccc
.	8b-	8cc	8bb-
.	8b-	8cc	8r
=47	=47	=47	=47
[2e	8b-	8cc	8r
.	8b-	8cc	8ff#
.	8b-	8cc	8gg
.	8b-	8cc	8r
8e]	8b-	8cc	8aa
16d	8b-	8cc	8gg
16e	.	.	.
=48	=48	=48	=48
4f	8a	8cc	8r
.	8a	8cc	8aa
2r	8a	8cc	8bb-
.	8a	8cc	8ddd
.	8a	4r	8ccc
.	8a	.	8ccc
=49	=49	=49	=49
8r	4a	2.r	4ccc
8E	.	.	.
8F	8g	.	8bb-
8r	8f	.	8aa
8G	8g	.	8bb-
8F	8a	.	8ccc
=50	=50	=50	=50
8r	8b-	2r	8ddd
8G	8g	.	8bb-
8A	8f	.	8aa
8c	8e	.	8gg
8B-	8r	8r	4r
8r	8g	8b-	.
=51	=51	=51	=51
2.r	4g	4b-	8r
.	.	.	8ff#
.	8f	8a	8gg
.	8e	8g	8r
.	8f	8a	8aa
.	8g	8b-	8gg
=52	=52	=52	=52
2r	8a	8cc	8r
.	8f	8a	8aa
.	8c	8g	8bb-
.	8A	8f	8ddd
8F	8a	4r	8ccc
8G	8b-	.	8r
=53	=53	=53	=53
8B-	8dd	8r	8r
8A	8cc	8f	8aa
4r	4r	8g	8bb-
.	.	8b-	8ddd
8F	8a	8a	8ccc
8G	8b-	8r	8r
=54	=54	=54	=54
8B-	8dd	8r	8r
8A	8cc	8f	8aa
4.r	4.r	8g	8bb-
.	.	8b-	8ddd
.	.	8a	8ccc
8F	8A	8f	8aa
=55	=55	=55	=55
8E	8G	8b-	8ddd
8F	8A	8a	8ccc
8A	8c	8f	8aa
8E	8G	8b-	8ddd
8F	8A	8a	8ccc
8A	8c	8f	8aa
=56	=56	=56	=56
8EE	8G	8b-	8ddd
8FF	8A	8a	8ccc
8AA	8c	8f	8aa
8EE	8G	8b-	8ddd
8FF	8A	8a	8ccc
8AA	8c	8f	8aa
=57	=57	=57	=57
8AA	16g	16ee	4.ccc#
.	16g	16ee	.
8A	16g	16ee	.
.	16g	16ee	.
8A	16g	16ee	.
.	16g	16ee	.
8BB-	16f	16dd	4.ddd
.	16f	16dd	.
8B-	16f	16dd	.
.	16f	16dd	.
8B-	16f	16dd	.
.	16f	16dd	.
=58	=58	=58	=58
8BB-	16g	16dd-	4.eee
.	16g	16dd-	.
8B-	16g	16dd-	.
.	16g	16dd-	.
8B-	16g	16dd-	.
.	16g	16dd-	.
8BB	16a-	16dd	4.fff
.	16a-	16dd	.
8B	16a-	16dd	.
.	16a-	16dd	.
8B	16a-	16dd	.
.	16a-	16dd	.
=59	=59	=59	=59
8C	16cc	16a 16f	4.ccc
.	16cc	16a 16f	.
8c	16cc	16a 16f	.
.	16cc	16a 16f	.
8c	16cc	16a 16f	.
.	16cc	16a 16f	.
8CC	16c	16b- 16g	4ee
.	16c	16b- 16g	.
8C	16c	16b- 16g	.
.	16c	16b- 16g	.
8C	16c	16b- 16g	16dd
.	16c	16b- 16g	16ee
=60	=60	=60	=60
2.FF	4.c	4.a 4.f	8ff
.	.	.	8f
.	.	.	8a
.	4.f	4.a-	8cc
.	.	.	8ff
.	.	.	8aa-
=61	=61	=61	=61
2.FF	4.d	4.f	8cc
.	.	.	8b
.	.	.	8ff
.	4.B	4.d	8aa-
.	.	.	8gg
.	.	.	8b
=62	=62	=62	=62
2.FF	4.e-	4.g	8cc
.	.	.	8e-
.	.	.	8g
.	4.e-	4.g-	8cc
.	.	.	8ee-
.	.	.	8gg-
=63	=63	=63	=63
2.FF	4.c	4.e-	8b-
.	.	.	8a
.	.	.	8ee-
.	4.A	4.c	8gg-
.	.	.	8ff
.	.	.	8a
=64	=64	=64	=64
2.FF	4.d	4.f	8b-
.	.	.	8B-
.	.	.	8d
.	4.d-	4.f	8f
.	.	.	8b-
.	.	.	8dd-
=65	=65	=65	=65
2.FF	4.B-	4.d-	8f
.	.	.	8e
.	.	.	8b-
.	4.G	4.B-	8dd-
.	.	.	8cc
.	.	.	8e
=66	=66	=66	=66
4FF	4F	4A	8f
.	.	.	8f
2r	2r	4r	8f
.	.	.	8f
.	.	8f	8f
.	.	8f	8f
=67	=67	=67	=67
2.r	8r	8f	8f
.	8F	8f	8f
.	8F	8f	8f
.	8F	8f	8f
.	8F	8f	8f
.	8F	8f	8f
=68	=68	=68	=68
2.GG-	2.G-	2.g-	2.g-
=69	=69	=69	=69
2.CC	2.C	2.c	[2c
.	.	.	8c]
.	.	.	8aa-
=70	=70	=70	=70
[2.DD-	2.F	8A-	4aa-
.	.	8d-	.
.	.	8f	8gg-
.	.	8A-	8ff
.	.	8d-	8gg-
.	.	8f	8aa-
=71	=71	=71	=71
2.DD-_	2.G-	8B-	8bb-
.	.	8e-	8gg-
.	.	8g-	8ff
.	.	8B-	8ee-
.	.	8e-	8r
.	.	8g-	8gg-
=72	=72	=72	=72
2.DD-_	2.E-	8A-	4gg-
.	.	8c	.
.	.	8e-	8ff
.	.	8A-	8ee-
.	.	8c	8ff
.	.	8e-	8gg-
=73	=73	=73	=73
2.DD-]	2.F	8A-	8aa-
.	.	8d-	8ff
.	.	8f	8ee-
.	.	8A-	8dd-
.	.	8d-	8r
.	.	8f	8dd-
=74	=74	=74	=74
2.r	2.r	8g-	8cc
.	.	8a-	8aa-
.	.	8g-	8cc
.	.	8f	8dd-
.	.	8a-	8r
.	.	8f	8ee-
=75	=75	=75	=75
2.r	2.r	8a-	8dd
.	.	8b-	8bb-
.	.	8a-	8dd
.	.	8g-	8ee-
.	.	8b-	8r
.	.	8d	8ff
=76	=76	=76	=76
2.r	2.r	4e-	8aa-
.	.	.	8gg-
.	.	8f	8ff
.	.	4g-	8ff
.	.	.	8ee-
.	.	8g	8dd-
=77	=77	=77	=77
2.r	2.r	4a-	8cc
.	.	.	8ee-
.	.	4.r	8ee-
.	.	.	8ee-
.	.	.	8ee-
.	.	8a-	8ee-
=78	=78	=78	=78
2.r	8c	4a-	[2.ee-
.	8e-	.	.
.	8c	8b-	.
.	8c	8cc	.
.	8e-	8b-	.
.	8c	8a-	.
=79	=79	=79	=79
2.r	8d-	8g	2.ee-_
.	8e-	8b-	.
.	8d-	8cc	.
.	8d-	8dd-	.
.	8e-	8r	.
.	8d-	8b-	.
=80	=80	=80	=80
2.r	8d-	4b-	2ee-_
.	8e-	.	.
.	8d-	8cc	.
.	8d-	8dd-	.
.	8e-	8cc	8ee-]
.	8d-	8b-	8ee-
=81	=81	=81	=81
2.r	8c	8a	4ee-
.	8e-	8cc	.
.	8B-	8dd-	8ff
.	8A	8ee-	8gg-
.	8r	8r	8ff
.	8f	8A	8ee-
=82	=82	=82	=82
2.r	4f	8B-	8dd-
.	.	8B-	8d-
.	8e-	8B-	8d-
.	8d-	8B-	8d-
.	8e-	8B-	8d-
.	8f	8B-	8d-
=83	=83	=83	=83
2.r	8g-	8B-	8c
.	8e-	8B-	8c
.	8d-	8B-	8c
.	8c	8B-	8c
.	8r	8B-	8c
.	8e-	8B-	8c
=84	=84	=84	=84
2r	4e-	8A	8c
.	.	8A	8c
.	8d-	8A	8c
.	8c	8A	8c
8r	8d-	8A	8c
8F	8e-	8A	8c
=85	=85	=85	=85
4F	8f	4A-	4B
.	8d	.	.
8G	8c	4.r	2r
8A-	8B	.	.
8G	4r	.	.
8F	.	8g	.
=86	=86	=86	=86
8E	2.r	8b-	2r
8G	.	8g	.
8A-	.	8f	.
8B-	.	8e	.
4r	.	8r	8r
.	.	8ff	8aa-
=87	=87	=87	=87
2r	2r	4ff	4aa-
.	.	8gg	8bb-
.	.	8aa-	8ccc
8r	8r	8gg	8bb-
8B-	8d-	8ff	8aa-
=88	=88	=88	=88
4B-	4d-	8ee	8gg
.	.	8gg	8bb-
8A-	8c	8aa-	8ccc
8G	8B-	8bb-	8ddd-
8A-	8c	8r	8r
8B-	8d-	8gg	8bb-
=89	=89	=89	=89
8c	8e-	8ff#	8aa
8A	8c	8aa	8ccc
8G	8B-	8bb-	8ddd
8F#	8A	8ccc	8eee-
4r	4r	4r	4r
=90	=90	=90	=90
2.r	2.r	2.r	2.r
=91	=91	=91	=91
8c	8e-	8ff	8aa
8A	8c	8aa	8ccc
8G	8B-	8bb-	8ddd
8F	8A	8ccc	8eee-
4r	4r	4r	4r
=92	=92	=92	=92
2.r	2r	2r	2.r
.	8r	8r	.
.	8A	8c	.
=93	=93	=93	=93
8EE	4A	4c	2r
8EE	.	.	.
8EE	8B	8d	.
8EE	8c	8e	.
8EE	8B	8d	8r
8EE	8A	8c	8dd
=94	=94	=94	=94
8EE	4.G#	4.B	4dd
8EE	.	.	.
8EE	.	.	8ee
8EE	4r	4r	8ff
8EE	.	.	8ee
8EE	8e	8g	8dd
=95	=95	=95	=95
8AA	4e	4g	[2cc#
8AA	.	.	.
8AA	8f	8a	.
8AA	8g	8b-	.
8AA	8f	8a	8cc#]
8AA	8e-	8g	8cc
=96	=96	=96	=96
8D	[2d	[2f#	4cc
8D	.	.	.
8D	.	.	8dd
8D	.	.	8ee-
8D	8d]	8f#]	8dd
8D	8d	8f	8cc
=97	=97	=97	=97
[2GG	4d	4f	[2b
.	8e-	8g	.
.	8f	8a-	.
8GG]	8e-	8g	8b]
8G	8d-	8f	8b-
=98	=98	=98	=98
4G	[2.c	2.e	4b-
8A	.	.	8cc
8B-	.	.	8dd-
8A	.	.	8cc
8G	.	.	8b-
=99	=99	=99	=99
4F	4c]	4e-	4a
2r	2r	4.r	4.r
.	.	8dd	8ff
=100	=100	=100	=100
2.r	4r	4dd	4ff
.	8g	8cc	8ee-
.	4g	8b	8dd
.	.	8cc	8ee-
.	8f	8dd	8ff
=101	=101	=101	=101
2.r	8e-	8ee-	8gg
.	8f	8cc	8ee-
.	8g	8b	8dd
.	8e-	8cc	8cc
.	8c	8r	8r
.	8r	8cc	8ee-
=102	=102	=102	=102
2.r	4r	4cc	4ee-
.	8f	8b-	8dd
.	4f	8a	8cc
.	.	8b-	8dd
.	8e-	8cc	8ee-
=103	=103	=103	=103
2.r	8d	8dd	8ff
.	8e-	8b-	8dd
.	8f	8a	8cc
.	8d	8b-	8b-
.	8B-	4r	8r
.	8r	.	8b-
=104	=104	=104	=104
4.E-	2.f	4.c	8a
.	.	.	8ff
.	.	.	8a
4.D	.	4.d	8b-
.	.	.	8dd
.	.	.	8b-
=105	=105	=105	=105
4.E-	2f	8c	8a
.	.	8A	8ff
.	.	8c	8a
8D	.	8d	8b-
4r	4r	4r	8ddd
.	.	.	8ddd
=106	=106	=106	=106
4.BB-	4.g	4.ff	16ddd
.	.	.	16ccc
.	.	.	16bb-
.	.	.	16aa
.	.	.	16gg
.	.	.	16ff
4.C	4.B-	4g	16ee
.	.	.	16dd
.	.	.	16cc
.	.	.	16b-
.	.	8e	16a
.	.	.	16g
=107	=107	=107	=107
8D	8A	8f	8f
8BB-	8B-	8d	8g
8C	8G	8B-	8e
8FF	8F	8A	8f
8r	4r	4r	4r
8F	.	.	.
=108	=108	=108	=108
4F	4r	4r	2.r
8E-	8d	8f	.
8D	4d	4f	.
8E-	.	.	.
8F	8c	8e-	.
=109	=109	=109	=109
8G	8B	8d	2.r
8E-	8c	8e-	.
8D	8d	8f	.
8C	8e-	8g	.
8D	8c	8e-	.
8E-	8B-	8d	.
=110	=110	=110	=110
8F	8A	8c	2.r
8D	8B-	8d	.
8C	8c	8e-	.
8BB-	8d	8f	.
8C	8B-	8d	.
8D	8A	8c	.
=111	=111	=111	=111
8E-	8G	8B-	2.r
8C	8A	8e-	.
8BB-	8B-	8d	.
4.FF	8B-	8d	.
.	8A	8c	.
.	8d	8b-	.
=112	=112	=112	=112
[2.FF	4d	4b-	4r
.	8c	8a	8bb-
.	8B-	8g	4bb-
.	8c	8a	.
.	8d	8b-	8aa
=113	=113	=113	=113
2.FF_	8e-	8cc	8gg
.	8c	8a	8aa
.	8B-	8g	8bb-
.	8A	8f	8ccc
.	8B-	8g	8aa
.	8c	8a	8gg
=114	=114	=114	=114
2.FF_	8d	8b-	8ff
.	8B-	8g	8gg
.	8A	8f	8aa
.	8G	8e-	8bb-
.	8e-	8g	8gg
.	8f	8a	8ff
=115	=115	=115	=115
4.FF]	4g	4b-	8ee-
.	.	.	8gg
.	8f	8a	8dd
8r	4e-	4g	8cc
8C	.	.	8ee-
8D	8d	8f	8b-
=116	=116	=116	=116
8E-	4c	4e-	4a
8G-	.	.	.
8D	8d	8f	8b-
8C	4e-	4a	4cc
8E-	.	.	.
8BB-	8d	8b-	8dd
=117	=117	=117	=117
8AA	4c	2cc	2ee-
8C	.	.	.
8GG-	8B-	.	.
8FF	8A	.	.
4r	4r	8r	8r
.	.	8dd	8ff
=118	=118	=118	=118
2.r	16B	4dd	4ff
.	16c	.	.
.	16d	.	.
.	16e-	.	.
.	16f	8cc	8ee-
.	16g	.	.
.	8a-	8b	8dd
.	8g	8cc	8ee-
.	8f	8dd	8ff
=119	=119	=119	=119
16C	8e-	8ee-	8gg
16E-	.	.	.
16F	8r	8g	8ee-
16G	.	.	.
16A	8g	8f	8dd
16B	.	.	.
8c	8g	8e-	8cc
8C	4r	8r	8r
8r	.	8cc	8ee-
=120	=120	=120	=120
2.r	16A	4cc	4ee-
.	16B-	.	.
.	16c	.	.
.	16d	.	.
.	16e-	8b-	8dd
.	16f	.	.
.	8g-	8a	8cc
.	8f	8b-	8dd
.	8e-	8cc	8ee-
=121	=121	=121	=121
16BB-	8d	8dd	8ff
16D	.	.	.
16E-	8r	8f	8dd
16F	.	.	.
16G	8f	8e-	8cc
16A	.	.	.
8B-	8f	8d	8b-
8BB-	4r	4r	8r
8r	.	.	8b-
=122	=122	=122	=122
2.r	4.e-	[2f	8a
.	.	.	8ff
.	.	.	8a
.	4.d	.	8b-
.	.	8f]	8dd
.	.	8b-	8b-
=123	=123	=123	=123
4.E-	8c	8a	8r
.	8A	8cc	8gg-
.	8c	8a	8ff
4.D	8d	8b-	8r
.	8B-	8dd	8gg-
.	8d	8b-	8ff
=124	=124	=124	=124
4.F	8d	8b	8r
.	8B	8dd	8aa-
.	8d	8b	8gg
4.E-	8e-	8cc	16ff#
.	.	.	16gg
.	8c	8g	16ff
.	.	.	16ee-
.	8g	8e-	16dd
.	.	.	16cc
=125	=125	=125	=125
8F	4f	4d	4b-
8FF	.	.	.
8FF#	8A	8e-	16dd
.	.	.	16cc
8GG	8B-	8d	8b-
8G	4r	4r	8eee-
8r	.	.	8eee-
=126	=126	=126	=126
4.CC	4.E-	4.A	16eee-
.	.	.	16ddd
.	.	.	16ccc
.	.	.	16bb-
.	.	.	16aa
.	.	.	16gg
4.DD	4.F	4.B-	16ff
.	.	.	16ee-
.	.	.	16dd
.	.	.	16cc
.	.	.	16b-
.	.	.	16a
=127	=127	=127	=127
8EE-	8G	8c	8g
8CC	8r	8e-	8cc
8FF	8E-	8c	8a
8GG	8D	8B-	8b-
8g	8b-	4r	4r
8g	8b-	.	.
=128	=128	=128	=128
16g	16b-	4.B-	4.b-
16f	16a	.	.
16e-	16g	.	.
16d	16f	.	.
16c	16e-	.	.
16B-	16d	.	.
16A	16c	4.f	4.ff
16G	16B-	.	.
16F	16A	.	.
16E-	16G	.	.
16D	16F	.	.
16C	16E-	.	.
=129	=129	=129	=129
8D	8F	8b-	8bb-
8E-	8b-	8g	8gg
8F	8e- 8c	8A	8a
8BB-	8d 8B-	8B-	8b-
8B-	4r	8r	8r
8r	.	8dd	8ff
=130	=130	=130	=130
8r	2.r	4dd	4ff
8A	.	.	.
8B-	.	8cc	8ee-
8r	.	8b-	8dd
8c	.	8cc	8ee-
8B-	.	8dd	8ff
=131	=131	=131	=131
8r	2r	8ee-	8gg
8c	.	8cc	8ee-
8d	.	8b-	8dd
8f	.	8a	8cc
8e-	8r	4r	4r
8c	8e-	.	.
=132	=132	=132	=132
4c	4e-	2.r	8r
.	.	.	8b
8B-	8d	.	8cc
8A	8c	.	8r
8B-	8d	.	8dd
8c	8e-	.	8cc
=133	=133	=133	=133
8d	8f	2r	8r
8B-	8d	.	8dd
8F	8c	.	8ee-
8D	8B-	.	8gg
8r	4r	8r	8ff
8BB-	.	8d	8r
=134	=134	=134	=134
8GG	8G	8B-	8b-
8C	8E-	8e-	8g
8AA	8A	8c	8cc
8D	8F	8f	8a
8BB-	8B-	8d	8dd
8E-	8G	8g	8b-
=135	=135	=135	=135
8C	8c	8e-	8ee-
8F	8A	8a	8cc
8D	8d	8f	8ff
8G	8B-	8b-	8dd
8E-	8e-	8g	8gg
8c	8g	8cc	8ee-
=136	=136	=136	=136
8F	16f	16a 16c	2ccc
.	16f	16a 16c	.
8F	16f	16a 16c	.
.	16f	16a 16c	.
8F	16f	16a 16c	.
.	16f	16a 16c	.
8E-	16f	16a 16c	.
.	16f	16a 16c	.
8E-	16f	16a 16c	16bb-
.	16f	16a 16c	16aa
8E-	16f	16a 16c	16gg
.	16f	16a 16c	16ff
=137	=137	=137	=137
8D	16f	16b- 16d	[4ddd
.	16f	16b- 16d	.
8D	16f	16b- 16d	.
.	16f	16b- 16d	.
8D	16f	16b- 16d	16ddd]
.	16f	16b- 16d	16bb-
8E-	16c	16b- 16g	[4gg
.	16c	16b- 16g	.
8E-	16c	16b- 16g	.
.	16c	16b- 16g	.
8E-	16c	16b- 16g	16gg]
.	16c	16b- 16g	16bb-
=138	=138	=138	=138
8F	16f	16d 16B-	[4dd
.	16f	16d 16B-	.
8F	16f	16d 16B-	.
.	16f	16d 16B-	.
8F	16f	16d 16B-	16dd]
.	16f	16d 16B-	16ff
8FF	16f	16e- 16c	[4a
.	16f	16e- 16c	.
8FF	16f	16e- 16c	.
.	16f	16e- 16c	.
8FF	16f	16e- 16c	16a]
.	16f	16e- 16c	16cc
=139	=139	=139	=139
8BB-	4f	4d 4B-	4b-
8BB-	.	.	.
8BB-	4.r	4.r	2r
8BB-	.	.	.
8BB-	.	.	.
8BB-	8d	8f	.
=140	=140	=140	=140
8BB-	4d	4f	2.r
8BB-	.	.	.
8BB-	8c	8e-	.
8BB-	8B-	8d	.
8BB-	8c	8e-	.
8BB-	8d	8f	.
=141	=141	=141	=141
8BB-	8e-	8g	2r
8BB-	8c	8e-	.
8BB-	8B-	8d	.
8BB-	8A	8c	.
8BB-	4r	4r	8r
8BB-	.	.	8ccc
=142	=142	=142	=142
8BB-	2g-	2.a	4ccc
8BB-	.	.	.
8BB-	.	.	8ddd
8BB-	.	.	8eee-
8BB-	8f	.	8ddd
8BB-	8e-	.	8ccc
=143	=143	=143	=143
8BB-	8d	8b-	8bb-
8BB-	8d	8f	8ddd
8BB-	8c	8e-	8eee-
8BB-	8B-	8d	8fff
8BB-	8r	8r	4r
8BB-	8F	8d	.
=144	=144	=144	=144
8BB-	4F	4d	2.r
8BB-	.	.	.
8BB-	8G	8e-	.
8BB	8A-	8f	.
8BB	8G	8e-	.
8BB	8F	8d	.
=145	=145	=145	=145
8C	8E-	8c	2r
8C	8c	8e-	.
8C	8d	8f	.
8C	8e-	8g	.
8D	8r	8r	8r
8E-	8B-	8c	8eee-
=146	=146	=146	=146
8F	8A	8c	4eee-
4r	4r	4r	.
.	.	.	8ddd
8E-	8A	8f	8ccc
4r	4r	4r	8ddd
.	.	.	8eee-
=147	=147	=147	=147
8D	8B-	8f	8fff
4r	4r	4r	8ddd
.	.	.	8ccc
8G	8d	8b-	8bb-
4r	4r	4r	8ddd
.	.	.	8fff
=148	=148	=148	=148
8E-	8c	8b-	8ggg
4r	4r	4r	8eee-
.	.	.	8ddd
8F	8e-	8a	8ccc
4r	4r	4r	8ddd
.	.	.	8eee-
=149	=149	=149	=149
8D	8f	8b-	8fff
4r	4r	4r	8ddd
.	.	.	8ccc
8G	8d	8b-	8bb-
4r	4r	4r	8ccc
.	.	.	8ddd
=150	=150	=150	=150
8F	8A	8c	8eee-
4r	4r	4r	8ccc
.	.	.	8aa
8FF	8c	8e-	8ff
4r	4r	4r	8gg
.	.	.	8aa
=151	=151	=151	=151
4BB-	4B-	4d	4bb-
2r	4.r	4.r	4.r
.	8f	8a	8ff
=152	=152	=152	=152
2.F	4f	4a	4ff
.	8e	8b-	8gg
.	8e-	8cc	8aa
.	8d	8dd	8bb-
.	8c	8ee-	8ccc
=153	=153	=153	=153
4B-	4d	4dd	4bb-
2r	4.r	4.r	4.r
.	8F	8A	8ff
=154	=154	=154	=154
2.FF	4F	4A	4ff
.	8G	8B-	8ee
.	8A	8c	8ee-
.	8B-	8d	8dd
.	8A	8e-	8cc
=155	=155	=155	=155
4BB-	4B-	4d	4b-
2r	2r	2r	2r
==	==	==	==
*-	*-	*-	*-
!!!RWG1: This file contains only pitch and duration data.
!!!RWG2: Transposing instruments are not transposed.
!!!RWG3: Spines may have incompatible meters.
!!!RWG4: Durations of rests and tied notes may be interpreted.
!!!RWG: Key is interpreted using the Humdrum key tool.
!!!AFT: stage1
!!!END: 1997/04/15
!!!KEY: 1352303625
!!!EMD: Converted from MuseData to Humdrum Dec 16, 2000, by Andreas Kornstaedt using muse2kern.
!!!EMD: Manual editing by Craig Sapp, Nov 2001
